X: 10648
T: Down In The Meadow
R: reel
M: 4/4
K: Gmajor
d2 d>e d>cB>c|(3ddd c>B (3AAA (3ABc|d2. d2. d>cB>c|d2. F2. G2.:|
dGFG DGFG|(3ddd c>B ADFA|1 B2. Bc BAGA|B2. A2. G2.:|
2 dg (3ggg eg (3ggg|d2. f2. g2.||

